X:2959
T:Kes\"aillalla
T:A summer evening
C:anon.
O:Finland
Z:Transcribed by Frank Nordberg - http://www.musicaviva.com
F:http://abc.musicaviva.com/tunes/finland/kesaillalla/kesaillalla.abc
M:C
L:1/4
Q:1/4=163
K:Bb
D/E/|FFDF/F/|BBBA/B/|ccAA|G2 z C/D/|
w:Kun_ k\"a-ve-lin ke-s\"a-il-lal-la, n\"a-in nii-tyn vi-her-j\"an, Ja_
EE/E/CE|G2GA/A/|FF/F/EE/E/|D2 z D/E/|
w:lin-tu-jen \"a\"a-nen hil-jaa kuu-lin met-s\"as-s\"a vi-ser-t\"a-v\"an. Lal-la-
FF/F/DF|d3c/c/|BB/B/AA|G2 z C/D/|
